X: 1
T: The Abbey Reel
T: Scotch Mary
M: 4/4
L: 1/8
R: reel
K: Dmix
FGAG FGAG|FDDB, C2AG|FGAG FGAG|FDEF D2DE|
FGAG FGAG|FDDB, C2AG|FGAB cBAG|FDEF DEFA||
d2dc ~A3G|FGAB c2Bc|Addc ~A3G|FDEF DEFA|
d2dc ~A3G|FGAB c2Bc|dBcA (3Bcd AG|FDEF D2DE||
